symbols/web/airline_seat_legroom_extra/materialsymbolssharp/airline_seat_legroom_extra_wght200gradN25_40px.svg

<svg xmlns="http://www.w3.org/2000/svg" height="40" width="40"><path d="M4.708 27.417v-21.5h1.375v20.166H21.25v1.334Zm25.584 5.916-4.584-9.291H9.625V5.917h8v11.791h6.667q.666 0 1.208.396.542.396.875.979L31.667 30l4.208-1.917L37 30.25Z"/></svg>

<svg xmlns="http://www.w3.org/2000/svg" height="40" width="40"><path d="M4.708 27.417V5.917H6.083V26.083H21.25V27.417ZM30.292 33.333 25.708 24.042H9.625V5.917H17.625V17.708H24.292Q24.958 17.708 25.5 18.104Q26.042 18.5 26.375 19.083L31.667 30L35.875 28.083L37 30.25Z"/></svg>
